X:108
T:Reels simple chords 224
M:3/4
L:1/8
K:A
[cA,CE]B AG E2 | C2 [EA,CE]F A2 | B4 [cA,CE]B | AG E2 C2 | [ED,F,A,]F A2 A4 |
[cA,CE]B AG | E2 C2 [EA,CE]F | A2 B4 | [cA,CE]B AG E2 |
C2 [ED,F,A,]F A2 | A4 [c2A,2C2E2] | ef e2 c2 | [BA,CE]c e2 e4 |
[f2D,2F,2A,2] fg | f2 e2 [BE,G,B,D]c | e2 e4 | [a2D,2F,2A,2] ba fe |
c2 [eA,CE]f e2 | c4 [A2F,2A,2C2] | Bc BA F2 | [EE,G,B,D]F A2 A4 |
[c2A,2C2E2] ef | e2 c2 [BA,CE]c | e2 e4 | [f2D,2F,2A,2] fg f2 |
e2 [BE,G,B,D]c e2 | e4 [a2D,2F,2A,2] | ba fe c2 | [eA,CE]f e2 c4 |
[A2F,2A,2C2] Bc | BA F2 [EE,G,B,D]F | A2 A4 |


